modules/hawcons-stroke/icons/information.svg

<?xml version="1.0" encoding="UTF-8" standalone="no"?>
<svg width="32px" height="32px" viewBox="0 0 32 32" version="1.1" xmlns="http://www.w3.org/2000/svg" xmlns:xlink="http://www.w3.org/1999/xlink" xmlns:sketch="http://www.bohemiancoding.com/sketch/ns">
    <!-- Generator: Sketch 3.0.3 (7891) - http://www.bohemiancoding.com/sketch -->
    <title>icon 29 information</title>
    <desc>Created with Sketch.</desc>
    <defs></defs>
    <g id="Page-1" stroke="none" stroke-width="1" fill="none" fill-rule="evenodd" sketch:type="MSPage">
        <g id="icon-29-information" sketch:type="MSArtboardGroup" fill="#929292">
            <path d="M17,22 L17,15.75 L17,15 L14,15 L14,16 L16,16 L16,22 L14,22 L14,23 L19,23 L19,22 L17,22 L17,22 L17,22 Z M16.5,29 C23.4035597,29 29,23.4035597 29,16.5 C29,9.59644029 23.4035597,4 16.5,4 C9.59644029,4 4,9.59644029 4,16.5 C4,23.4035597 9.59644029,29 16.5,29 L16.5,29 L16.5,29 Z M16.5,28 C22.8512749,28 28,22.8512749 28,16.5 C28,10.1487251 22.8512749,5 16.5,5 C10.1487251,5 5,10.1487251 5,16.5 C5,22.8512749 10.1487251,28 16.5,28 L16.5,28 L16.5,28 Z M16.5,13 C17.3284272,13 18,12.3284272 18,11.5 C18,10.6715728 17.3284272,10 16.5,10 C15.6715728,10 15,10.6715728 15,11.5 C15,12.3284272 15.6715728,13 16.5,13 L16.5,13 L16.5,13 Z" id="information" sketch:type="MSShapeGroup"></path>
        </g>
    </g>
</svg>

<svg width="32" height="32" viewBox="0 0 32 32" xmlns="http://www.w3.org/2000/svg"><path d="M17 22v-7h-3v1h2v6h-2v1h5v-1h-2zm-.5 7C23.404 29 29 23.404 29 16.5S23.404 4 16.5 4 4 9.596 4 16.5 9.596 29 16.5 29zm0-1C22.851 28 28 22.851 28 16.5S22.851 5 16.5 5 5 10.149 5 16.5 10.149 28 16.5 28zm0-15a1.5 1.5 0 1 0 0-3 1.5 1.5 0 0 0 0 3z" fill="#929292" fill-rule="evenodd"/></svg>
